!!!OTL: WAT DOOD EER MET DAE MOLL
!!!ARE: Europa, Mitteleuropa, Deutschland, Niederrhein
!!!SCT: E1566
!!!YEM: Copyright 1995, estate of Helmut Schaffrath.
**kern
*ICvox
*Ivox
*M2/4
*k[f#c#]
*D:
{8A
=1
8.d
16c#
8B
8c#
=2
4d}
{4f#
=3
8.e
16d
8c#
8d
=4
4e
8r}
{8A
=5
8.e
16e
8e
8f#
=6
8g
8f#
8e
8r}
=7
{8f#
8d
8d
8d
=8
8e
8A
8A}
{8A
=9
8.d
16d
8e
8e
=10
4a
8r}
==
!!!AGN: Staende -, Bauern - Lied, Flachsbrechen, bei der Arbeit
!!!ONB: ESAC (Essen Associative Code) Database: ERK3
!!!AMT: simple duple
!!!AIN: vox
!!!EED: Helmut Schaffrath
!!!EEV: 1.0
*-
